svg/u1f6fb.svg

<svg viewBox="0 0 128 128" xmlns="http://www.w3.org/2000/svg">
  <path d="M3.16,76.23c0,0-0.28-3.98,1.58-5.85c2.1-2.1,4-1.69,8.31-1.8c6.69-0.18,12.34-0.17,12.34-0.17 s8.96-16.99,10.85-19.9c1.89-2.9,5.42-7.2,11.23-7.81c5.81-0.61,18.78,0,20.47,0.07c1.69,0.07,2.84,1.01,2.84,2.9s0,26.07,0,26.07 s47.08,0,48.57,0s2.22,1.7,2.63,2.7c0.37,0.9,0.88,2.97,0.88,2.97l-7.77,7.16L3.16,76.23z" fill="#FF5117"/>
  <polygon points="3.8,99.74 3.2,87.98 3.14,75.52 122.86,75.42 122.85,100.25 123.31,107.48 39.67,108.07 " fill="#EE3E23"/>
  <path d="M10.1,104.14c0.35-0.13,6.96-5.12,6.96-5.12s1.6-3.07,2.39-3.85c0.79-0.79,1.44-0.92,2.63-0.92 c1.18,0,13.45,0.13,14.68,0.13c1.23,0,2.41,1.18,3.15,2.32c0.74,1.14,6,9.8,6,9.8l41.05,0.08c0,0,3.55-9.05,4.03-10.15 s0.88-1.79,2.28-1.84c1.4-0.04,17.51,0.09,18.52,0.09c1.01,0,1.62,0.61,2.06,1.4c0.44,0.79,3.88,10.34,3.88,10.34l3.98-0.05 l-1.04,4.03H10.47L10.1,104.14z" fill="#B22519"/>
  <path d="M15.66,110.48c0.09,5.52,4.18,13.43,13.58,13.5c9.4,0.06,14.28-7.28,13.99-14.8 c-0.3-7.64-6.13-13.04-14.52-12.8C20.86,96.61,15.54,102.84,15.66,110.48z" fill="#4E433D"/>
  <path d="M88.44,110.46c0.09,5.52,4.4,13.46,13.81,13.52c9.4,0.06,14.28-7.28,13.99-14.8 c-0.3-7.64-6.13-13.04-14.52-12.8C93.86,96.61,88.32,102.81,88.44,110.46z" fill="#4E433D"/>
  <path d="M21.85,109.99c0.05,2.91,2.41,7.1,7.56,7.13s7.64-3.62,7.48-7.58c-0.17-4.03-3.46-7.03-7.78-6.97 C24.82,102.64,21.79,105.97,21.85,109.99z" fill="#C8C8C8"/>
  <path d="M94.85,109.99c0.05,2.91,2.41,7.1,7.56,7.13s7.64-3.62,7.48-7.58c-0.17-4.03-3.46-7.03-7.78-6.97 C97.82,102.64,94.79,105.97,94.85,109.99z" fill="#C8C8C8"/>
  <path d="M3.11,100.35c0.01,0.56,0.28,7.85,0.28,8.77c0,0.93,0.63,1.76,2.1,1.81c1.47,0.05,6.36,0,6.36,0 s1.12-2.91,2.4-5.8c1.47-3.32,3.14-6.54,3.14-6.62c0-0.04-10.79-0.11-11.87-0.11S3.07,98.65,3.11,100.35z" fill="#B0B0B1"/>
  <path d="M120.29,98.31l-0.09,12.17c0,0,4.31,0,5.05,0c0.75,0,1.45-1.19,1.41-1.98s-0.09-7.95-0.13-8.74 s-0.97-1.45-1.93-1.45S120.25,98.17,120.29,98.31z" fill="#B0B0B1"/>
  <path d="M118.92,75.67c-0.55,0.55-0.24,15.32,0.06,15.8c0.24,0.38,4.46,0.15,4.46,0.15s0.11-4.39,0.18-7.51 c0.09-4.17-0.75-8.66-0.75-8.66S119.27,75.32,118.92,75.67z" fill="#D50916"/>
  <path d="M53.91,76.47c-1.54,0-2.32,1.19-2.28,2.46c0.04,1.45,1.19,2.11,2.42,2.15c1.23,0.04,5.05,0,6.02-0.04 c0.97-0.04,2.02-0.88,1.98-2.42c-0.03-1.14-0.97-2.07-1.89-2.11C59.23,76.47,54.71,76.47,53.91,76.47z" fill="#8A1E0C"/>
  <path d="M68.75,70.29c0-0.99,0.41-1.49,1.17-1.44c0.63,0.04,1.22,0.27,1.22,1.58c0,1.31,0,39.47,0,40.05 s-0.45,1.04-1.04,1.08c-0.59,0.04-1.22-0.45-1.26-1.13C68.8,109.76,68.75,70.78,68.75,70.29z" fill="#8A1E0C"/>
  <path d="M4.96,76.44c0,0,1.83,0.11,2.43,0.68c0.78,0.74,2.01,4.12,2.04,4.73c0.04,0.77,0.12,8.42-0.12,8.81 c-0.08,0.14-4.06,0.18-4.08,0.17c-0.03-0.02-0.97-6.11-0.99-7.52C4.19,79.25,4.85,76.53,4.96,76.44z" fill="#FDFEFE"/>
  <path d="M3.34,90.82c0,0-0.27-2.9-0.31-7.9C3,79.23,3.15,76.29,3.15,76.29l2.04,0.18c0,0,0.09,2.94,0.09,6.84 c0,3.19,0.28,7.53,0.28,7.53L3.34,90.82z" fill="#DBCDC7"/>
  <path d="M47.87,44.55c-3.66,0.34-5.6,2.45-7.58,5.04c-1.98,2.59-9.32,17.23-9.51,18.21 c-0.23,1.22,1.69,0.89,4.19,0.89c2.21,0,28.24,0.14,29.32,0.09c1.08-0.05,2.07-0.99,2.12-3.53c0.05-2.54,0-16-0.05-17.56 s-0.8-2.87-3.01-3.01C61.7,44.59,50.02,44.35,47.87,44.55z" fill="#546F79"/>
  <path d="M36.05,65.4c-0.4-0.35,5.05-10.58,5.69-11.72c1.36-2.4,2.82-3.91,4.19-4.71 c1.36-0.8,2.64-0.92,4.42-0.99c2.49-0.09,12-0.24,12.33,0.16c0.33,0.4,0.24,13.35,0.14,14.66c-0.09,1.32-0.22,2.4-1.65,2.49 c-2.94,0.19-8.35,0.02-13.37,0.05C41.76,65.39,36.26,65.58,36.05,65.4z" fill="#AFE3FB"/>
  <path d="M37.98,68.09c0,1.15,2.38,3.83,5.96,3.79c4.03-0.04,5.15-3.08,5.12-4.94 c-0.05-3.22-2.47-4.41-2.47-4.41l-7.46,2.91C39.14,65.44,37.98,66.75,37.98,68.09z" fill="#B52213"/>
  <path d="M42.38,62.72c-1.72,0.73-3.24,2.71-3.24,2.71s0.08,2.65,4.29,2.49c4.21-0.16,3.25-5.35,3.25-5.35 S45.25,61.51,42.38,62.72z" fill="#EE3E23"/>
</svg>

<svg viewBox="0 0 128 128" xmlns="http://www.w3.org/2000/svg">
  <defs/>
  <path d="M3.16,76.23 C3.16,76.23 2.88,72.25 4.74,70.38 C6.84,68.28 8.74,68.69 13.05,68.58 C19.74,68.4 25.39,68.41 25.39,68.41 C25.39,68.41 34.35,51.42 36.24,48.51 C38.13,45.61 41.66,41.31 47.47,40.7 C53.28,40.09 66.25,40.7 67.94,40.77 C69.63,40.84 70.78,41.78 70.78,43.67 C70.78,45.56 70.78,69.74 70.78,69.74 C70.78,69.74 117.86,69.74 119.35,69.74 C120.84,69.74 121.57,71.44 121.98,72.44 C122.35,73.34 122.86,75.41 122.86,75.41 L115.09,82.57 L3.16,76.23 Z" fill="#FF5117"/>
  <path d="M3.8,99.74 L3.2,87.98 L3.14,75.52 L122.86,75.42 L122.85,100.25 L123.31,107.48 L39.67,108.07 Z" fill="#EE3E23"/>
  <path d="M10.1,104.14 C10.45,104.01 17.06,99.02 17.06,99.02 C17.06,99.02 18.66,95.95 19.45,95.17 C20.24,94.38 20.89,94.25 22.08,94.25 C23.26,94.25 35.53,94.38 36.76,94.38 C37.99,94.38 39.17,95.56 39.91,96.7 C40.65,97.84 45.91,106.5 45.91,106.5 L86.96,106.58 C86.96,106.58 90.51,97.53 90.99,96.43 C91.47,95.33 91.87,94.64 93.27,94.59 C94.67,94.55 110.78,94.68 111.79,94.68 C112.8,94.68 113.41,95.29 113.85,96.08 C114.29,96.87 117.73,106.42 117.73,106.42 L121.71,106.37 L120.67,110.4 L10.47,110.4 L10.1,104.14 Z" fill="#B22519"/>
  <path d="M15.66,110.48 C15.75,116 19.84,123.91 29.24,123.98 C38.64,124.04 43.52,116.7 43.23,109.18 C42.93,101.54 37.1,96.14 28.71,96.38 C20.86,96.61 15.54,102.84 15.66,110.48 Z" fill="#4E433D"/>
  <path d="M88.44,110.46 C88.53,115.98 92.84,123.92 102.25,123.98 C111.65,124.04 116.53,116.7 116.24,109.18 C115.94,101.54 110.11,96.14 101.72,96.38 C93.86,96.61 88.32,102.81 88.44,110.46 Z" fill="#4E433D"/>
  <path d="M21.85,109.99 C21.9,112.9 24.26,117.09 29.41,117.12 C34.56,117.15 37.05,113.5 36.89,109.54 C36.72,105.51 33.43,102.51 29.11,102.57 C24.82,102.64 21.79,105.97 21.85,109.99 Z" fill="#C8C8C8"/>
  <path d="M94.85,109.99 C94.9,112.9 97.26,117.09 102.41,117.12 C107.56,117.15 110.05,113.5 109.89,109.54 C109.72,105.51 106.43,102.51 102.11,102.57 C97.82,102.64 94.79,105.97 94.85,109.99 Z" fill="#C8C8C8"/>
  <path d="M3.11,100.35 C3.12,100.91 3.39,108.2 3.39,109.12 C3.39,110.05 4.02,110.88 5.49,110.93 C6.96,110.98 11.85,110.93 11.85,110.93 C11.85,110.93 12.97,108.02 14.25,105.13 C15.72,101.81 17.39,98.59 17.39,98.51 C17.39,98.47 6.6,98.4 5.52,98.4 C4.44,98.4 3.07,98.65 3.11,100.35 Z" fill="#B0B0B1"/>
  <path d="M120.29,98.31 L120.2,110.48 C120.2,110.48 124.51,110.48 125.25,110.48 C126,110.48 126.7,109.29 126.66,108.5 C126.62,107.71 126.57,100.55 126.53,99.76 C126.49,98.97 125.56,98.31 124.6,98.31 C123.64,98.31 120.25,98.17 120.29,98.31 Z" fill="#B0B0B1"/>
  <path d="M118.92,75.67 C118.37,76.22 118.68,90.99 118.98,91.47 C119.22,91.85 123.44,91.62 123.44,91.62 C123.44,91.62 123.55,87.23 123.62,84.11 C123.71,79.94 122.87,75.45 122.87,75.45 C122.87,75.45 119.27,75.32 118.92,75.67 Z" fill="#D50916"/>
  <path d="M53.91,76.47 C52.37,76.47 51.59,77.66 51.63,78.93 C51.67,80.38 52.82,81.04 54.05,81.08 C55.28,81.12 59.1,81.08 60.07,81.04 C61.04,81 62.09,80.16 62.05,78.62 C62.02,77.48 61.08,76.55 60.16,76.51 C59.23,76.47 54.71,76.47 53.91,76.47 Z" fill="#8A1E0C"/>
  <path d="M68.75,70.29 C68.75,69.3 69.16,68.8 69.92,68.85 C70.55,68.89 71.14,69.12 71.14,70.43 C71.14,71.74 71.14,109.9 71.14,110.48 C71.14,111.06 70.69,111.52 70.1,111.56 C69.51,111.6 68.88,111.11 68.84,110.43 C68.8,109.76 68.75,70.78 68.75,70.29 Z" fill="#8A1E0C"/>
  <path d="M4.96,76.44 C4.96,76.44 6.79,76.55 7.39,77.12 C8.17,77.86 9.4,81.24 9.43,81.85 C9.47,82.62 9.55,90.27 9.31,90.66 C9.23,90.8 5.25,90.84 5.23,90.83 C5.2,90.81 4.26,84.72 4.24,83.31 C4.19,79.25 4.85,76.53 4.96,76.44 Z" fill="#FDFEFE"/>
  <path d="M3.34,90.82 C3.34,90.82 3.07,87.92 3.03,82.92 C3,79.23 3.15,76.29 3.15,76.29 L5.19,76.47 C5.19,76.47 5.28,79.41 5.28,83.31 C5.28,86.5 5.56,90.84 5.56,90.84 L3.34,90.82 Z" fill="#DBCDC7"/>
  <path d="M47.87,44.55 C44.21,44.89 42.27,47 40.29,49.59 C38.31,52.18 30.97,66.82 30.78,67.8 C30.55,69.02 32.47,68.69 34.97,68.69 C37.18,68.69 63.21,68.83 64.29,68.78 C65.37,68.73 66.36,67.79 66.41,65.25 C66.46,62.71 66.41,49.25 66.36,47.69 C66.31,46.13 65.56,44.82 63.35,44.68 C61.7,44.59 50.02,44.35 47.87,44.55 Z" fill="#546F79"/>
  <path d="M36.05,65.4 C35.65,65.05 41.1,54.82 41.74,53.68 C43.1,51.28 44.56,49.77 45.93,48.97 C47.29,48.17 48.57,48.05 50.35,47.98 C52.84,47.89 62.35,47.74 62.68,48.14 C63.01,48.54 62.92,61.49 62.82,62.8 C62.73,64.12 62.6,65.2 61.17,65.29 C58.23,65.48 52.82,65.31 47.8,65.34 C41.76,65.39 36.26,65.58 36.05,65.4 Z" fill="#AFE3FB"/>
  <path d="M37.98,68.09 C37.98,69.24 40.36,71.92 43.94,71.88 C47.97,71.84 49.09,68.8 49.06,66.94 C49.01,63.72 46.59,62.53 46.59,62.53 L39.13,65.44 C39.14,65.44 37.98,66.75 37.98,68.09 Z" fill="#B52213"/>
  <path d="M42.38,62.72 C40.66,63.45 39.14,65.43 39.14,65.43 C39.14,65.43 39.22,68.08 43.43,67.92 C47.64,67.76 46.68,62.57 46.68,62.57 C46.68,62.57 45.25,61.51 42.38,62.72 Z" fill="#EE3E23"/>
</svg>
